icons/yii/yii-plain-wordmark.svg

<svg xmlns="http://www.w3.org/2000/svg" viewBox="0 0 128 128"><path d="M124.463 39.5613C126.453 39.5613 128 41.1092 128 43.0992C128 45.0885 126.453 46.6367 124.463 46.6367C122.473 46.6367 120.925 45.0885 120.925 43.0992C120.925 41.3299 122.472 39.5613 124.463 39.5613ZM111.639 39.5613C113.628 39.5613 115.177 41.1092 115.177 43.0992C115.177 45.0885 113.629 46.6367 111.639 46.6367C109.65 46.6367 108.101 45.0885 108.101 43.0992C108.101 41.3299 109.65 39.5613 111.639 39.5613ZM115.177 82.8953V49.9528C115.177 49.2903 114.734 48.8474 114.071 48.8474H109.207C108.544 48.8474 108.101 49.2903 108.101 49.9528V82.8953C108.101 83.5585 108.544 84.0007 109.207 84.0007H114.071C114.734 83.7792 115.177 83.3382 115.177 82.8953ZM102.574 83.7792V49.0685C99.9213 49.0685 95.7198 50.8371 95.7198 54.5957V78.252C94.173 78.4735 91.9612 78.6953 90.6358 78.6953C86.2129 78.6953 85.1086 75.5991 85.1086 71.3984V54.3739C84.8872 50.1735 80.2439 49.0682 78.2546 49.0682V71.1777C78.2546 79.136 82.2343 84.2214 90.6358 84.2214C91.9612 84.2214 94.6155 83.7785 95.7198 83.5578L95.7783 84.1312C96.0842 91.0176 88.424 88.2014 84.0029 87.7586C80.6861 87.7586 78.4757 90.4118 77.8114 93.5072C79.8014 94.1704 85.9926 94.834 90.414 95.2758C98.3741 95.4972 102.574 91.0761 102.574 83.7792ZM127.779 82.8953V49.9528C127.779 49.2903 127.337 48.8474 126.674 48.8474H121.81C121.146 48.8474 120.704 49.2903 120.704 49.9528V82.8953C120.704 83.5585 121.146 84.0007 121.81 84.0007H126.674C127.337 83.7792 127.779 83.3382 127.779 82.8953ZM46.452 74.0709C45.9311 67.1948 43.7132 62.7376 42.6331 60.2113C41.5538 57.6858 39.894 55.3213 39.8929 55.3253C39.8897 55.336 38.3985 63.3716 35.7175 69.1855C35.27 70.1565 34.6756 71.3688 34.0758 72.3451C32.2249 75.6131 29.5392 78.7395 27.9385 81.9083C26.3514 85.049 26.0569 88.1593 26.2045 91.6955C26.3532 95.2512 27.1747 98.7388 27.9635 102.196C30.9366 101.554 33.5242 100.457 35.7627 99.0536C41.6536 95.3603 45.2133 89.4533 46.2249 83.0893C46.2249 83.0893 46.2741 82.8308 46.2962 82.5155C46.7522 77.597 46.6014 76.0452 46.452 74.0709Z M46.4521 74.0709C45.9311 67.1948 43.7133 62.7376 42.6332 60.2113C41.5539 57.6857 39.894 55.3213 39.893 55.3252L39.8926 55.327C39.8926 55.326 39.893 55.3249 39.893 55.3249L39.4968 54.7358C30.8093 42.5408 14.1486 36.452 0.0718752 42.0954C-0.605965 50.6435 3.35696 65.3509 17.8148 69.4533C23.6597 71.2515 28.3401 70.7851 34.0762 72.3447C34.0759 72.3447 34.0759 72.3451 34.0759 72.3451C34.0759 72.3451 39.9065 74.3772 43.2986 77.4244C44.8243 78.7947 46.3522 80.5983 46.2756 82.7434C46.7587 77.6384 46.604 76.0766 46.4521 74.0709Z M40.1387 48.1689C38.0845 42.1589 38.9549 38.1318 42.7131 32.5276C44.5056 29.8536 47.6003 26.7522 50.3127 25C61.2562 31.8576 65.3026 44.6306 61.2779 56.4934C58.3491 65.1249 55.601 68.7441 48.6525 77.6248C49.4623 68.1137 46.1148 61.5196 42.8283 54.1928C41.9918 52.3286 40.835 50.2067 40.1387 48.1689Z M46.2755 82.7434C46.3522 80.5983 44.8243 78.7947 43.2985 77.4244C39.9065 74.3772 34.0762 72.3451 34.0762 72.3451C34.6759 71.3688 35.2703 70.1564 35.7178 69.1855C38.3989 63.3716 39.8901 55.336 39.8933 55.3253C39.8943 55.3217 41.5538 57.6857 42.6335 60.2113C43.7136 62.7376 45.9311 67.1944 46.4524 74.0709C46.6039 76.0766 46.7587 77.6384 46.2755 82.7434Z"/></svg>

<svg xmlns="http://www.w3.org/2000/svg" viewBox="0 0 128 128"><path d="M124.463 39.561c1.99 0 3.537 1.548 3.537 3.538 0 1.99-1.547 3.538-3.537 3.538s-3.538-1.548-3.538-3.538c0-1.77 1.547-3.538 3.538-3.538Zm-12.824 0c1.989 0 3.538 1.548 3.538 3.538 0 1.99-1.548 3.538-3.538 3.538-1.989 0-3.538-1.548-3.538-3.538 0-1.77 1.549-3.538 3.538-3.538Zm3.538 43.334V49.953c0-.663-.443-1.106-1.106-1.106h-4.864c-.663 0-1.106.443-1.106 1.106v32.942c0 .663.443 1.106 1.106 1.106h4.864c.663-.222 1.106-.663 1.106-1.106Zm-12.603.884V49.07c-2.653 0-6.854 1.768-6.854 5.527v23.656c-1.547.222-3.759.443-5.084.443-4.423 0-5.527-3.096-5.527-7.297V54.374c-.222-4.2-4.865-5.306-6.854-5.306v22.11c0 7.958 3.98 13.043 12.38 13.043 1.326 0 3.98-.443 5.085-.663l.058.573c.306 6.887-7.354 4.07-11.775 3.628-3.317 0-5.527 2.653-6.192 5.748 1.99.663 8.182 1.327 12.603 1.769 7.96.221 12.16-4.2 12.16-11.497Zm25.205-.884V49.953c0-.663-.442-1.106-1.105-1.106h-4.864c-.664 0-1.106.443-1.106 1.106v32.942c0 .663.442 1.106 1.106 1.106h4.864c.663-.222 1.105-.663 1.105-1.106Zm-81.327-8.824c-.52-6.876-2.739-11.333-3.819-13.86-1.08-2.525-2.739-4.89-2.74-4.886-.003.011-1.495 8.047-4.175 13.86-.448.971-1.042 2.184-1.642 3.16-1.851 3.268-4.537 6.395-6.137 9.563-1.588 3.141-1.882 6.251-1.735 9.787.15 3.556.97 7.044 1.76 10.501 2.973-.642 5.56-1.739 7.799-3.142 5.89-3.694 9.45-9.6 10.462-15.965 0 0 .05-.258.071-.573.456-4.919.305-6.47.156-8.445Zm0 0c-.52-6.876-2.739-11.333-3.819-13.86-1.08-2.525-2.739-4.89-2.74-4.886v.002-.002l-.396-.59C30.809 42.542 14.149 36.453.072 42.096c-.678 8.549 3.285 23.256 17.743 27.358 5.845 1.798 10.525 1.332 16.261 2.892 0 0 5.83 2.032 9.223 5.08 1.525 1.37 3.053 3.173 2.977 5.318.483-5.105.328-6.666.176-8.672ZM40.14 48.169c-2.055-6.01-1.184-10.037 2.574-15.641 1.793-2.674 4.887-5.776 7.6-7.528 10.943 6.858 14.99 19.63 10.965 31.493-2.929 8.632-5.677 12.251-12.625 21.132.81-9.511-2.538-16.105-5.825-23.432-.836-1.864-1.993-3.986-2.69-6.024Zm6.136 34.574c.077-2.145-1.45-3.948-2.977-5.319-3.392-3.047-9.222-5.079-9.222-5.079.6-.976 1.194-2.189 1.642-3.16 2.68-5.813 4.172-13.849 4.175-13.86.001-.003 1.66 2.36 2.74 4.886 1.08 2.527 3.298 6.983 3.82 13.86.15 2.006.306 3.567-.178 8.672Z"/></svg>
